X:1
T:Firsts - Page 2  "Arr. J. Johnson"
M:C
L:1/8
Q:80
C:Johann Pachelbel
S:Kannon
K:HP
ddedccdc | \
BBABccfe | \
ddegffAf |
dgfgeAGA | | \
fAAAAAAA | \
ffffffAA |
GGGddddd | \
ddBBAAec | | \
Afffeeee |
ddddaaAA | \
BBBBAAAA | \
BBBBaccc| |
dd/2e/2fdcc/2d/2ec | \
BB/2c/2dBca/2g/2fe | \
dg/2f/2egfd/2e/2fa |
gB/2A/2Gfea/2g/2fe | | \
fd/2c/2dfaA/2B/2cA | \
fd/2e/2fdff/2e/2dc |
BB/2A/2Bcdf/2e/2df | \
gd/2c/2BBAeAA | | \
A4-A2A2 |
d4-d2A2 | \
G4A4 | \
G2d2{gef}ed-dc | \
d2d2c4 |
B4A4 | \
d3ef4 | \
B4e2e2 | | \
f3ffgfe |
d3ddedc | \
B4d4 | \
d"cnat"cB"cnat"cA3A | \
A3aagag |
f3ffgfe | | \
d"cnat"cB"cnat"cA3A | \
G2d2c3c |
d2d2-d2c2- | \
c2B2-B2A2- | \
A2g2-g2f2- |
f3ee4 | \
f2f2-f2e2 | \
d2d2-d2"cnat"c2| |
B4d2A2 | \
B4A4 | \
A4A3g | \
f4f3e |
d4-d2d2 | \
d4c4 | \
dad2cac2 | \
BaB2AaA2| |
Gag2faf2 | \
eaB2eae2 | \
f2fae2ea |
d2dac2ca | \
B2BaA2Aa | \
G2eaA2A2 |
A4"hrst"|]
